!!!OTL: Media vita
!!!ARE: Europa, Mitteleuropa, Deutschland
!!!SCT: A0647A
!!!YEM: Copyright 1995, estate of Helmut Schaffrath.
**kern
*ICvox
*Ivox
*M4/1
*k[f#]
*e:
{2a
=1
1a
1b
1gn
1a
=2
0b
0ccn
=3
0b
1a}
{1b
=4
1ccn
1b
1ccn
1a
=5
1gn
1a
1gn
1fn
=6
0e
1.r}
{2a
=7
1a
1b
1gn
1a
=8
0b
0ccn
=9
0b
1a}
{1b
=10
1ccn
1b
1ccn
1a
=11
1gn
1a
1gn
1fn
=12
0e
0r}
=13
{1dn
1e
1gn
1a
=14
2fn
2dn
1e
1dn
2cn}
{2dn
=15
1a
1gn
1a
1b
=16
1ccn
1ccn
1b
1a
=17
1gn
1e
1fn
1gn
=18
[0e
0e]}
=19
{0a
1gn
1e
=20
1fn
1gn
1e
1r}
=21
{0a
1gn
1e
=22
1fn
1gn
1e
1r}
=23
{1a
1gn
1a
1b
=24
0ccn
1b
1a
=25
1gn
1e
1fn
1a
=26
1fn
1e
1dn
1r}
=27
{1a
1gn
1a
1b
=28
0ccn
1b
1a
=29
1gn
1e
1fn
1gn
=30
0e
1.r}
==
!!!AGN: Romanze, Ballade, Lied, religioeses Lied
!! Muenchner Cod. 15. Jh.
!!!ONB: ESAC (Essen Associative Code) Database: ALTDEU
!!!AMT: simple quadruple
!!!AIN: vox
!!!EED: Helmut Schaffrath
!!!EEV: 1.0
*-
